X: 1
T: Barony, The
M: 9/8
L: 1/8
R: slip jig
K: Ador
|: FAA FAA FDD | FAA FAA B2A | FAA FAA FED | BAF EFA B2A :|
|: FAA dBd AFE | FAA dBd A2G | FAA dBd AFD | BAF EFA B2A :|
